status-logo.svg

<?xml version="1.0" encoding="UTF-8"?>
<svg width="330px" height="124px" viewBox="0 0 330 124" version="1.1" xmlns="http://www.w3.org/2000/svg" xmlns:xlink="http://www.w3.org/1999/xlink">
    <!-- Generator: Sketch 50.2 (55047) - http://www.bohemiancoding.com/sketch -->
    <title>Group</title>
    <desc>Created with Sketch.</desc>
    <defs></defs>
    <g id="Page-1" stroke="none" stroke-width="1" fill="none" fill-rule="evenodd">
        <g id="Artboard" transform="translate(-56.000000, -194.000000)">
            <g id="Group-2" transform="translate(0.000000, 149.000000)">
                <g id="Group" transform="translate(56.000000, 45.000000)">
                    <path d="M72.457502,61.428843 C65.0269015,61.8563547 60.3698519,60.1300872 52.9388898,60.5575988 C51.1558927,60.6599709 49.2651638,60.9195058 47.4687907,61.3538663 C48.5641843,47.6507849 58.2911347,35.6617151 71.5186449,34.9007733 C79.6354029,34.4336105 87.7474612,39.4310988 88.1885108,47.5430058 C88.6212455,55.5157733 82.5235545,60.8495756 72.457502,61.428843 M52.503263,89.4614942 C44.7274146,89.8987384 36.9562659,85.2217035 36.5340152,77.6295872 C36.1189948,70.1679593 41.9607324,65.1762384 51.6034496,64.6340988 C58.7217003,64.2339826 63.1835312,65.8495872 70.3021434,65.4494709 C72.0103067,65.3535872 73.821502,65.1106337 75.5423184,64.7040291 C74.4931988,77.528657 65.1747615,88.7492151 52.503263,89.4614942 M61.9999277,0.180052326 C27.7582134,0.180052326 -7.23032067e-05,27.8580058 -7.23032067e-05,61.9998198 C-7.23032067e-05,96.1419942 27.7582134,123.819587 61.9999277,123.819587 C96.241642,123.819587 123.999928,96.1419942 123.999928,61.9998198 C123.999928,27.8580058 96.241642,0.180052326 61.9999277,0.180052326" id="symbol" fill="#4360DF"></path>
                    <path d="M152,71.1096078 L161.464118,71.1096078 C161.464118,72.4988329 161.915853,73.4956073 162.820384,74.1013699 C163.724915,74.7064131 164.886113,75.0092943 166.304332,75.0092943 C167.475797,75.0092943 168.436263,74.8107308 169.186794,74.4125247 C169.936616,74.0146782 170.311882,73.3628719 170.311882,72.4553072 C170.311882,71.9193296 170.151863,71.4793963 169.833949,71.137306 C169.515328,70.7952156 169.026775,70.4894565 168.369353,70.221108 C167.712285,69.9531192 166.873248,69.6567128 165.852244,69.332968 C164.831947,69.0088634 163.594988,68.6156933 162.142428,68.1538173 C160.847409,67.7347476 159.629921,67.2994906 158.489256,66.8487658 C157.348592,66.3984008 156.346704,65.8372431 155.483594,65.1663718 C154.62013,64.4958602 153.947131,63.6778649 153.464596,62.713465 C152.981,61.7494248 152.73991,60.5540868 152.73991,59.1285303 C152.73991,57.4928994 153.058531,56.0781344 153.69542,54.8831562 C154.332663,53.6878183 155.225865,52.7032742 156.377504,51.9266463 C157.528436,51.1514573 158.905942,50.569436 160.508608,50.1816616 C162.111628,49.7942469 163.879269,49.6 165.811177,49.6 C168.17464,49.6 170.209215,49.8723054 171.914901,50.4172759 C173.620234,50.9626061 175.018274,51.7072193 176.107605,52.6503959 C177.196229,53.5935726 178.003049,54.7050966 178.527712,55.983529 C179.051667,57.2626809 179.313645,58.6357187 179.313645,60.1033621 L169.787926,60.1033621 C169.787926,58.8245699 169.463994,57.8292343 168.816485,57.1159165 C168.169329,56.4033181 167.187621,56.0464794 165.872777,56.0464794 C164.865579,56.0464794 164.002115,56.2723813 163.282739,56.7227464 C162.563716,57.1734712 162.204028,57.8497382 162.204028,58.750828 C162.204028,59.3555115 162.373606,59.8404093 162.713823,60.2051618 C163.053331,60.5691949 163.552505,60.8976161 164.210989,61.1893462 C164.870182,61.4810762 165.68302,61.7839575 166.650213,62.0961915 C167.617406,62.4091448 168.726209,62.7677822 169.976621,63.1724632 C171.332178,63.5275034 172.595689,63.9228318 173.766446,64.3573694 C174.937557,64.7922666 175.969536,65.3206902 176.863446,65.9433594 C177.757356,66.5649495 178.465758,67.3451746 178.989713,68.283675 C179.514022,69.2214559 179.776,70.4117578 179.776,71.8538612 C179.776,73.7560421 179.406045,75.3758455 178.666135,76.7139908 C177.926226,78.0510571 176.934605,79.1409981 175.691273,79.9812958 C174.447588,80.8212338 173.003879,81.4241187 171.359792,81.7892309 C169.715705,82.1539835 167.989131,82.336 166.181132,82.336 C161.680073,82.336 158.191168,81.3773555 155.714772,79.4586277 C153.237667,77.5406194 152,74.7574928 152,71.1096078 M180.768,58.1713059 L180.768,50.8592557 L185.468457,50.8592557 L185.468457,41.664 L195.021846,41.664 L195.021846,50.8592557 L201.859416,50.8592557 L201.859416,58.1713059 L195.021846,58.1713059 L195.021846,69.1855099 C195.021846,70.330295 195.123847,71.2403076 195.327498,71.9162657 C195.530449,72.5918649 195.820328,73.1227953 196.197135,73.5072622 C196.573593,73.892088 197.03102,74.1419376 197.570819,74.2557341 C198.109916,74.3709665 198.715613,74.4273262 199.386856,74.4273262 C199.793108,74.4273262 200.312576,74.4118901 200.94351,74.3802999 C201.573743,74.3490687 202.123356,74.291991 202.592,74.2076309 L202.592,81.8280442 C201.879395,81.954405 200.989078,82.0710732 199.921047,82.1769722 C198.852666,82.2828711 197.596056,82.336 196.151919,82.336 C195.030258,82.336 193.847608,82.2519988 192.603266,82.0850734 C191.357523,81.9170711 190.204666,81.4787573 189.142595,80.7669013 C188.081224,80.0557632 187.203525,78.9623122 186.509848,77.4876251 C185.81512,76.012579 185.468457,73.9882945 185.468457,71.4151306 L185.468457,58.1713059 L180.768,58.1713059 Z M214.491271,66.9439312 C214.491271,68.0174735 214.675715,69.0429899 215.044605,70.0215637 C215.413131,71.0001374 215.919535,71.8429385 216.561636,72.5474394 C217.204828,73.2526625 217.97935,73.8203075 218.885203,74.2521799 C219.791056,74.6840523 220.803138,74.8992663 221.919993,74.8992663 C223.036484,74.8992663 224.053659,74.6840523 224.970426,74.2521799 C225.887556,73.8203075 226.667172,73.2526625 227.31,72.5474394 C227.952829,71.8429385 228.458142,71.0062761 228.827031,70.037813 C229.195921,69.0697111 229.380729,68.0387783 229.380729,66.9439312 C229.380729,65.8703888 229.195921,64.8603996 228.827031,63.9136024 C228.458142,62.9664442 227.952829,62.1247263 227.31,61.3880878 C226.667172,60.6518103 225.892286,60.0726102 224.986797,59.6519318 C224.080216,59.2312534 223.057948,59.0207337 221.919993,59.0207337 C220.803138,59.0207337 219.791056,59.2312534 218.885203,59.6519318 C217.97935,60.0726102 217.204828,60.6518103 216.561636,61.3880878 C215.919535,62.1247263 215.413131,62.9664442 215.044605,63.9136024 C214.675715,64.8603996 214.491271,65.8703888 214.491271,66.9439312 M204.576,66.9439312 C204.576,64.6083537 204.952165,62.4403254 205.70486,60.4409295 C206.456827,58.4418947 207.505652,56.7216271 208.851699,55.2797654 C210.197382,53.8382649 211.771165,52.6968363 213.572685,51.8547573 C215.374204,51.0126784 217.324153,50.592 219.423258,50.592 C221.761742,50.592 223.790634,51.0867033 225.508117,52.0753878 C227.225963,53.0647945 228.516713,54.3167189 229.380729,55.8322443 L229.380729,51.3806366 L239.296,51.3806366 L239.296,82.5386413 L229.380729,82.5386413 L229.380729,78.1505866 C228.600386,79.5816153 227.34638,80.8021242 225.619075,81.8124745 C223.890678,82.8224637 221.825406,83.328 219.423258,83.328 C217.346345,83.328 215.401489,82.9065994 213.589056,82.0648816 C211.776622,81.2235248 210.197382,80.0759575 208.851699,78.6239852 C207.505652,77.1720128 206.456827,75.4466898 205.70486,73.4469329 C204.952165,71.4482592 204.576,69.2798698 204.576,66.9439312 M241.28,58.1713059 L241.28,50.8592557 L245.980457,50.8592557 L245.980457,41.664 L255.533846,41.664 L255.533846,50.8592557 L262.371416,50.8592557 L262.371416,58.1713059 L255.533846,58.1713059 L255.533846,69.1855099 C255.533846,70.330295 255.635847,71.2403076 255.839498,71.9162657 C256.042449,72.5918649 256.332328,73.1227953 256.709135,73.5072622 C257.085593,73.892088 257.54337,74.1419376 258.083169,74.2557341 C258.621916,74.3709665 259.227613,74.4273262 259.899207,74.4273262 C260.305458,74.4273262 260.824927,74.4118901 261.45551,74.3802999 C262.085743,74.3490687 262.635707,74.291991 263.104,74.2076309 L263.104,81.8280442 C262.391395,81.954405 261.501078,82.0710732 260.433047,82.1769722 C259.365016,82.2828711 258.108056,82.336 256.663919,82.336 C255.542258,82.336 254.359608,82.2519988 253.115266,82.0850734 C251.869523,81.9170711 250.716666,81.4787573 249.654595,80.7669013 C248.593224,80.0557632 247.715525,78.9623122 247.021848,77.4876251 C246.32712,76.012579 245.980457,73.9882945 245.980457,71.4151306 L245.980457,58.1713059 L241.28,58.1713059 Z M267.072,68.9733156 L267.072,50.592 L276.794723,50.592 L276.794723,66.4638206 C276.794723,68.6812469 277.187114,70.4846101 277.971538,71.8749866 C278.756319,73.2657219 280.160363,73.9607307 282.184385,73.9607307 C284.208406,73.9607307 285.700917,73.2553165 286.661204,71.8434116 C287.621134,70.4318654 288.101277,68.5244483 288.101277,66.1186484 L288.101277,50.592 L297.824,50.592 L297.824,81.5516482 L288.101277,81.5516482 L288.101277,77.1286363 C287.254784,78.760131 285.964176,80.036407 284.229096,80.9560289 C282.49473,81.875292 280.419341,82.336 278.002929,82.336 C275.87867,82.336 274.135742,82.0008744 272.77165,81.3320585 C271.407558,80.6632425 270.29852,79.8168172 269.445249,78.7913472 C268.467127,77.5993909 267.826817,76.219061 267.525389,74.6510751 C267.222892,73.0827304 267.072,71.1903831 267.072,68.9733156 M301.792,71.1096078 L311.255764,71.1096078 C311.255764,72.4988329 311.708207,73.4956073 312.612384,74.1013699 C313.516206,74.7064131 314.678113,75.0092943 316.095978,75.0092943 C317.267797,75.0092943 318.227909,74.8107308 318.97844,74.4125247 C319.728616,74.0146782 320.103882,73.3628719 320.103882,72.4553072 C320.103882,71.9193296 319.943863,71.4793963 319.625595,71.137306 C319.306974,70.7952156 318.818775,70.4894565 318.161353,70.221108 C317.503931,69.9531192 316.664894,69.6567128 315.64389,69.332968 C314.623593,69.0088634 313.386988,68.6156933 311.934074,68.1538173 C310.639409,67.7347476 309.421567,67.2994906 308.280902,66.8487658 C307.140592,66.3984008 306.13835,65.8372431 305.275594,65.1663718 C304.411776,64.4958602 303.738777,63.6778649 303.256242,62.713465 C302.773,61.7494248 302.53191,60.5540868 302.53191,59.1285303 C302.53191,57.4928994 302.849823,56.0781344 303.48742,54.8831562 C304.124309,53.6878183 305.018219,52.7032742 306.169504,51.9266463 C307.319728,51.1514573 308.697588,50.569436 310.300254,50.1816616 C311.903274,49.7942469 313.670561,49.6 315.602823,49.6 C317.966286,49.6 320.001215,49.8723054 321.706547,50.4172759 C323.412234,50.9626061 324.80992,51.7072193 325.899605,52.6503959 C326.988229,53.5935726 327.795049,54.7050966 328.319712,55.983529 C328.843313,57.2626809 329.105645,58.6357187 329.105645,60.1033621 L319.579926,60.1033621 C319.579926,58.8245699 319.255994,57.8292343 318.608485,57.1159165 C317.961329,56.4033181 316.979267,56.0464794 315.664423,56.0464794 C314.657225,56.0464794 313.793761,56.2723813 313.074739,56.7227464 C312.355362,57.1734712 311.995674,57.8497382 311.995674,58.750828 C311.995674,59.3555115 312.165606,59.8404093 312.505823,60.2051618 C312.845331,60.5691949 313.344151,60.8976161 314.002989,61.1893462 C314.662182,61.4810762 315.474312,61.7839575 316.441859,62.0961915 C317.409052,62.4091448 318.518209,62.7677822 319.768621,63.1724632 C321.123824,63.5275034 322.387335,63.9228318 323.558092,64.3573694 C324.729557,64.7922666 325.761536,65.3206902 326.655446,65.9433594 C327.549356,66.5649495 328.257404,67.3451746 328.781713,68.283675 C329.305668,69.2214559 329.568,70.4117578 329.568,71.8538612 C329.568,73.7560421 329.197691,75.3758455 328.457781,76.7139908 C327.718226,78.0510571 326.726605,79.1409981 325.482919,79.9812958 C324.239588,80.8212338 322.795525,81.4241187 321.151792,81.7892309 C319.507351,82.1539835 317.781131,82.336 315.973132,82.336 C311.472073,82.336 307.98246,81.3773555 305.506772,79.4586277 C303.030021,77.5406194 301.792,74.7574928 301.792,71.1096078" id="work-mark" fill="#000000"></path>
                </g>
            </g>
        </g>
    </g>
</svg>

<svg width="330" height="124" xmlns="http://www.w3.org/2000/svg"><g fill="none" fill-rule="evenodd"><path d="M72.458 61.429c-7.431.427-12.088-1.299-19.52-.871a31.245 31.245 0 0 0-5.47.796C48.565 47.65 58.292 35.662 71.519 34.9c8.117-.467 16.23 4.53 16.67 12.642.433 7.973-5.664 13.307-15.73 13.886M52.503 89.46c-7.776.438-15.547-4.24-15.969-11.831-.415-7.462 5.427-12.454 15.07-12.996 7.118-.4 11.58 1.216 18.698.815a30.589 30.589 0 0 0 5.24-.745C74.493 77.528 65.175 88.748 52.503 89.46M62 .181C27.758.18 0 27.857 0 62s27.758 61.82 62 61.82c34.242 0 62-27.678 62-61.82C124 27.858 96.242.18 62 .18" fill="#4360DF"/><path d="M152 71.11h9.464c0 1.389.452 2.386 1.356 2.991.905.605 2.066.908 3.484.908 1.172 0 2.132-.198 2.883-.596.75-.398 1.125-1.05 1.125-1.958 0-.536-.16-.976-.478-1.318-.319-.342-.807-.648-1.465-.916a34.317 34.317 0 0 0-2.517-.888l-3.71-1.18a61.345 61.345 0 0 1-3.653-1.304c-1.14-.45-2.142-1.012-3.005-1.683a7.086 7.086 0 0 1-2.02-2.453c-.483-.964-.724-2.159-.724-3.584 0-1.636.319-3.05.955-4.246a8.143 8.143 0 0 1 2.683-2.956c1.15-.776 2.528-1.358 4.13-1.745 1.604-.388 3.371-.582 5.303-.582 2.364 0 4.398.272 6.104.817 1.705.546 3.103 1.29 4.193 2.233 1.088.944 1.895 2.055 2.42 3.334.524 1.279.786 2.652.786 4.12h-9.526c0-1.28-.324-2.275-.972-2.988-.647-.713-1.628-1.07-2.943-1.07-1.007 0-1.87.226-2.59.677-.72.45-1.079 1.127-1.079 2.028 0 .605.17 1.09.51 1.454.34.364.839.693 1.497.984.66.292 1.472.595 2.44.907l3.326 1.076c1.355.356 2.619.75 3.79 1.185 1.17.435 2.203.964 3.096 1.586a6.936 6.936 0 0 1 2.127 2.34c.524.938.786 2.129.786 3.57 0 1.903-.37 3.523-1.11 4.861a9.342 9.342 0 0 1-2.975 3.267c-1.243.84-2.687 1.443-4.331 1.808-1.644.365-3.37.547-5.179.547-4.5 0-7.99-.959-10.466-2.877-2.477-1.918-3.715-4.702-3.715-8.35m28.768-12.938V50.86h4.7v-9.195h9.554v9.195h6.837v7.312h-6.837v11.015c0 1.144.102 2.054.305 2.73.203.676.493 1.207.87 1.591a2.64 2.64 0 0 0 1.374.749 8.744 8.744 0 0 0 1.816.171c.406 0 .926-.015 1.557-.047.63-.03 1.18-.088 1.648-.172v7.62a36.13 36.13 0 0 1-2.671.349c-1.068.106-2.325.159-3.77.159a26.9 26.9 0 0 1-3.548-.25 8.077 8.077 0 0 1-3.46-1.32c-1.062-.71-1.94-1.804-2.633-3.278-.695-1.475-1.042-3.5-1.042-6.073V58.171h-4.7zm33.723 8.773c0 1.073.185 2.099.554 3.078.368.978.875 1.82 1.517 2.525a7.436 7.436 0 0 0 2.323 1.705c.906.432 1.918.647 3.035.647 1.116 0 2.134-.215 3.05-.647.918-.432 1.697-1 2.34-1.705.643-.704 1.148-1.54 1.517-2.51a8.614 8.614 0 0 0 .554-3.093 8.273 8.273 0 0 0-.554-3.03 8.493 8.493 0 0 0-1.517-2.526 6.915 6.915 0 0 0-2.323-1.736c-.907-.42-1.93-.631-3.067-.631-1.117 0-2.129.21-3.035.63a6.92 6.92 0 0 0-2.323 1.737 8.5 8.5 0 0 0-1.517 2.526 8.272 8.272 0 0 0-.554 3.03m-9.915 0c0-2.336.376-4.504 1.129-6.503.752-2 1.8-3.72 3.147-5.161a15.203 15.203 0 0 1 4.72-3.425c1.802-.842 3.752-1.263 5.851-1.263 2.339 0 4.368.495 6.085 1.483 1.718.99 3.009 2.242 3.873 3.757v-4.451h9.915v31.158h-9.915V78.15c-.78 1.43-2.035 2.651-3.762 3.661-1.728 1.01-3.794 1.516-6.196 1.516-2.077 0-4.022-.421-5.834-1.263a15.017 15.017 0 0 1-4.737-3.441c-1.346-1.452-2.395-3.177-3.147-5.177-.753-1.999-1.129-4.167-1.129-6.503m36.704-8.773v-7.31h4.7v-9.195h9.554v9.195h6.837v7.312h-6.837v11.015c0 1.144.102 2.054.305 2.73.203.676.493 1.207.87 1.591a2.64 2.64 0 0 0 1.374.749 8.72 8.72 0 0 0 1.816.171c.406 0 .926-.015 1.557-.047.63-.03 1.18-.088 1.648-.172v7.62a36.13 36.13 0 0 1-2.671.349c-1.068.106-2.325.159-3.77.159a26.9 26.9 0 0 1-3.548-.25 8.077 8.077 0 0 1-3.46-1.32c-1.062-.71-1.94-1.804-2.633-3.278-.695-1.475-1.042-3.5-1.042-6.073V58.171h-4.7zm25.792 10.802v-18.38h9.723v15.872c0 2.217.392 4.02 1.177 5.411.784 1.39 2.188 2.086 4.212 2.086 2.024 0 3.517-.706 4.477-2.118.96-1.411 1.44-3.319 1.44-5.724V50.592h9.723v30.96h-9.723v-4.423c-.846 1.631-2.137 2.907-3.872 3.827-1.734.92-3.81 1.38-6.226 1.38-2.124 0-3.867-.335-5.231-1.004-1.364-.669-2.473-1.515-3.327-2.54-.978-1.193-1.618-2.573-1.92-4.14-.302-1.57-.453-3.462-.453-5.679m34.72 2.137h9.464c0 1.389.452 2.386 1.356 2.991.904.605 2.066.908 3.484.908 1.172 0 2.132-.198 2.882-.596.75-.398 1.126-1.05 1.126-1.958 0-.536-.16-.976-.478-1.318-.319-.342-.807-.648-1.465-.916a34.393 34.393 0 0 0-2.517-.888l-3.71-1.18a61.434 61.434 0 0 1-3.653-1.304c-1.14-.45-2.143-1.012-3.005-1.683a7.083 7.083 0 0 1-2.02-2.453c-.483-.964-.724-2.159-.724-3.584 0-1.636.318-3.05.955-4.246a8.143 8.143 0 0 1 2.683-2.956c1.15-.776 2.528-1.358 4.13-1.745 1.603-.388 3.37-.582 5.303-.582 2.363 0 4.398.272 6.104.817 1.705.546 3.103 1.29 4.193 2.233 1.088.944 1.895 2.055 2.42 3.334.523 1.279.786 2.652.786 4.12h-9.526c0-1.28-.324-2.275-.972-2.988-.647-.713-1.629-1.07-2.944-1.07-1.007 0-1.87.226-2.59.677-.719.45-1.078 1.127-1.078 2.028 0 .605.17 1.09.51 1.454.34.364.838.693 1.497.984.66.292 1.471.595 2.439.907l3.327 1.076a40.42 40.42 0 0 1 3.79 1.185c1.17.435 2.203.964 3.096 1.586a6.94 6.94 0 0 1 2.127 2.34c.524.938.786 2.129.786 3.57 0 1.903-.37 3.523-1.11 4.861a9.335 9.335 0 0 1-2.975 3.267c-1.243.84-2.687 1.443-4.331 1.808-1.645.365-3.37.547-5.179.547-4.5 0-7.99-.959-10.466-2.877-2.477-1.918-3.715-4.702-3.715-8.35" fill="#000"/></g></svg>
